TO PETAL :LEN
  REPEAT 18 [ FD :LEN TR 10 FD :LEN TR 170 ]
END
TO MEADOW :N
  IF :N = 0 [ STOP ]
  PU
  SETXY RANDOM 200 RANDOM 150
  PD
  SETPC RANDOM 14 + 1
  SETH RANDOM 250
  PETAL 8
  MEADOW :N - 1
END
CS
MEADOW 12
